src/assets/images/apps/running.svg

<svg height="67" viewBox="0 0 60 67" width="60" xmlns="http://www.w3.org/2000/svg"><path d="m34.009 1.077c-2.48-1.436-5.538-1.436-8.018 0l-22 12.738c-2.47 1.431-3.991 4.069-3.991 6.923v25.517c0 2.855 1.521 5.493 3.991 6.924l22 12.738c2.48 1.436 5.538 1.436 8.018 0l22-12.738c2.47-1.431 3.991-4.069 3.991-6.924v-25.517c0-2.854-1.521-5.492-3.991-6.923zm-6.04 35.569 5.229 9.517h6.911l-5.801-9.984c1.838-.551 3.223-1.484 4.154-2.801.955-1.317 1.432-2.813 1.432-4.489 0-1.485-.346-2.826-1.038-4.023-.692-1.221-1.743-2.179-3.152-2.873-1.384-.694-3.067-1.042-5.049-1.042h-10.277v25.212h6.123v-9.517zm2.328-4.346h-3.796v-6.249h3.796c1.122 0 1.958.276 2.507.826.573.551.859 1.305.859 2.263 0 1.006-.286 1.784-.859 2.334-.549.551-1.385.826-2.507.826z" fill="#00f15e" fill-rule="evenodd"/></svg>

<svg id="vector" xmlns="http://www.w3.org/2000/svg" width="60" height="67" viewBox="0 0 60 67"><path fill="#00F15E" d="M34.009,1.077C31.529,-0.359 28.471,-0.359 25.991,1.077L3.991,13.815C1.521,15.246 0,17.884 0,20.738V46.255C0,49.11 1.521,51.748 3.991,53.179L25.991,65.917C28.471,67.353 31.529,67.353 34.009,65.917L56.009,53.179C58.479,51.748 60,49.11 60,46.255V20.738C60,17.884 58.479,15.246 56.009,13.815L34.009,1.077ZM27.969,36.646L33.198,46.163H40.109L34.308,36.179C36.146,35.628 37.531,34.695 38.462,33.378C39.417,32.061 39.894,30.565 39.894,28.889C39.894,27.404 39.548,26.063 38.856,24.866C38.164,23.645 37.113,22.687 35.704,21.993C34.32,21.299 32.637,20.951 30.655,20.951H20.378V46.163H26.501V36.646H27.969ZM30.297,32.3H26.501V26.051H30.297C31.419,26.051 32.255,26.327 32.804,26.877C33.377,27.428 33.663,28.182 33.663,29.14C33.663,30.146 33.377,30.924 32.804,31.474C32.255,32.025 31.419,32.3 30.297,32.3Z" fill-rule="evenodd" id="path_0"/></svg>
